X:1
T:Title
%%score { 1 | 2 }
L:1/8
Q:1/4=100
M:2/4
K:F
V:1 treble nm="Grand Piano"
V:2 bass 
V:1
 FF FF | A[DG] FE | F2 [EG]2 | [FA]4 | [EG][EG] [EG][EG] | [GB]A GF | G2 =B2 |[M:3/8] [Ec]3 | %8
w: W.~H.~Doane * * *||||||||
[M:1/8] [Ec] |[M:2/4] c2 Ad | c2 Ad | c[GB] [FA][EG] | [FA]3 [Fc] | [Fd]2 [DFB][Fd] | %14
w: ||||||
 [Fc]2 [CFA][CF] | [CDA][B,DG] [A,CF][G,CE] | [A,CF]4 |] %17
w: |||
V:2
 [F,A,C][F,A,C] [F,A,C][F,A,C] | [F,CF][B,,B,] [C,A,C][C,G,C] | [F,A,C]2 [C,C]2 | [F,C]4 | %4
 [C,C][C,C] [C,C][C,C] | [E,C][K:treble][F,CF] [B,CE][A,C] | [G,CE]2 [G,DF]2 | %7
[M:3/8][K:bass] [C,C]3 |[M:1/8] [C,B,] |[M:2/4] [F,A,F]2 [F,CF][F,B,F] | [F,A,F]2 [F,CF][F,B,F] | %11
 [F,A,F][C,C] [C,C][C,C] | [F,C]3 [F,A,] | [B,,B,]2 B,,[B,,B,] | [F,A,]2 F,A,, | B,,B,, C,C, | %16
 F,4 |] %17

